assets/icons/svg/convert-3d-cube.svg

<svg width="41" height="40" viewBox="0 0 41 40" fill="none" xmlns="http://www.w3.org/2000/svg">
<path d="M25.5001 37.9167C25.0501 37.9167 24.6335 37.6667 24.4168 37.2833C24.2002 36.9 24.2002 36.4167 24.4335 36.0333L26.1835 33.1167C26.5335 32.5167 27.3002 32.3333 27.9002 32.6833C28.5002 33.0333 28.6835 33.8 28.3335 34.4L27.8835 35.15C32.4835 34.0667 35.9335 29.9333 35.9335 25C35.9335 24.3167 36.5001 23.75 37.1835 23.75C37.8668 23.75 38.4335 24.3167 38.4335 25C38.4168 32.1167 32.6168 37.9167 25.5001 37.9167Z" fill="#17469E"/>
<path d="M3.8335 16.25C3.15016 16.25 2.5835 15.6834 2.5835 15C2.5835 7.88337 8.3835 2.08337 15.5002 2.08337C15.9502 2.08337 16.3668 2.33338 16.5835 2.71672C16.8002 3.10005 16.8002 3.58338 16.5668 3.96672L14.8168 6.88338C14.4668 7.48338 13.7002 7.66673 13.1002 7.31673C12.5002 6.96673 12.3168 6.20002 12.6668 5.60002L13.1168 4.85C8.51684 5.93333 5.06684 10.0667 5.06684 15C5.08351 15.6834 4.51683 16.25 3.8335 16.25Z" fill="#17469E"/>
<path d="M29.9665 12.4998C29.7498 12.4998 29.5331 12.4498 29.3331 12.3332L22.7165 8.49975C22.1165 8.14975 21.9165 7.38313 22.2665 6.78313C22.6165 6.18313 23.3831 5.9831 23.9665 6.3331L29.9665 9.7998L35.9165 6.34979C36.5165 5.99979 37.2831 6.21648 37.6165 6.79982C37.9665 7.39982 37.7498 8.16643 37.1665 8.51643L30.5831 12.3165C30.3998 12.4331 30.1831 12.4998 29.9665 12.4998Z" fill="#17469E"/>
<path d="M29.9668 19.2832C29.2835 19.2832 28.7168 18.7165 28.7168 18.0332V11.2332C28.7168 10.5498 29.2835 9.98315 29.9668 9.98315C30.6501 9.98315 31.2168 10.5498 31.2168 11.2332V18.0332C31.2168 18.7332 30.6501 19.2832 29.9668 19.2832Z" fill="#17469E"/>
<path d="M29.9666 19.5833C29.1999 19.5833 28.4166 19.4166 27.7999 19.0666L23.7999 16.8499C22.4999 16.1333 21.5166 14.45 21.5166 12.9667V8.73326C21.5166 7.23326 22.4999 5.56665 23.8166 4.83332L27.8166 2.61663C29.0499 1.93329 30.8999 1.93329 32.1499 2.61663L36.1499 4.83332C37.4499 5.54999 38.4333 7.23325 38.4333 8.71658V12.95C38.4333 14.45 37.4499 16.1166 36.1499 16.8332L32.1499 19.0499C31.4999 19.4166 30.7333 19.5833 29.9666 19.5833ZM29.0166 4.78327L25.0166 6.99997C24.5166 7.2833 24.0166 8.13323 24.0166 8.6999V12.9333C24.0166 13.5166 24.5166 14.3667 25.0166 14.6333L29.0166 16.8666C29.4999 17.1333 30.4333 17.1333 30.9166 16.8666L34.9166 14.6499C35.4166 14.3666 35.9166 13.5166 35.9166 12.95V8.71658C35.9166 8.13325 35.4166 7.28332 34.9166 7.01665L30.9166 4.79996C30.4333 4.51662 29.4833 4.51661 29.0166 4.78327Z" fill="#17469E"/>
<path d="M11.0334 30.8332C10.8167 30.8332 10.6 30.7832 10.4 30.6665L3.78336 26.8331C3.18336 26.4831 2.98335 25.7165 3.33335 25.1165C3.68335 24.5165 4.45003 24.3165 5.03336 24.6665L11.0334 28.1332L16.9834 24.6832C17.5834 24.3332 18.35 24.5499 18.6834 25.1332C19.0334 25.7332 18.8167 26.4998 18.2334 26.8498L11.65 30.6499C11.4667 30.7665 11.25 30.8332 11.0334 30.8332Z" fill="#17469E"/>
<path d="M11.0332 37.6164C10.3499 37.6164 9.7832 37.0498 9.7832 36.3664V29.5664C9.7832 28.8831 10.3499 28.3164 11.0332 28.3164C11.7165 28.3164 12.2832 28.8831 12.2832 29.5664V36.3664C12.2832 37.0664 11.7332 37.6164 11.0332 37.6164Z" fill="#17469E"/>
<path d="M11.0335 37.9166C10.2668 37.9166 9.4835 37.7499 8.86684 37.3999L4.86682 35.1832C3.56682 34.4665 2.5835 32.7833 2.5835 31.3V27.0666C2.5835 25.5666 3.56682 23.8999 4.86682 23.1832L8.86684 20.9666C10.1002 20.2833 11.9668 20.2833 13.2002 20.9666L17.2002 23.1832C18.5002 23.8999 19.4835 25.5832 19.4835 27.0666V31.3C19.4835 32.8 18.5002 34.4666 17.1835 35.1999L13.1835 37.4166C12.5835 37.7499 11.8168 37.9166 11.0335 37.9166ZM10.0835 23.1166L6.08351 25.3333C5.58351 25.6166 5.0835 26.4665 5.0835 27.0332V31.2666C5.0835 31.8499 5.58351 32.7 6.08351 32.9666L10.0835 35.1832C10.5668 35.4499 11.5002 35.4499 11.9835 35.1832L15.9835 32.9666C16.4835 32.6833 16.9835 31.8333 16.9835 31.2666V27.0332C16.9835 26.4499 16.4835 25.5999 15.9835 25.3333L11.9835 23.0999C11.5168 22.8499 10.5668 22.8499 10.0835 23.1166Z" fill="#17469E"/>
</svg>

<svg width="41" height="40" fill="none" xmlns="http://www.w3.org/2000/svg"><path d="M25.5 37.917a1.242 1.242 0 0 1-1.067-1.883l1.75-2.917c.35-.6 1.117-.784 1.717-.434.6.35.784 1.117.434 1.717l-.45.75c4.6-1.083 8.05-5.217 8.05-10.15 0-.683.566-1.25 1.25-1.25.683 0 1.25.567 1.25 1.25-.017 7.117-5.817 12.917-12.934 12.917ZM3.833 16.25A1.26 1.26 0 0 1 2.583 15c0-7.117 5.8-12.917 12.917-12.917.45 0 .867.25 1.084.634.216.383.216.866-.017 1.25l-1.75 2.916c-.35.6-1.117.784-1.717.434a1.248 1.248 0 0 1-.433-1.717l.45-.75c-4.6 1.083-8.05 5.217-8.05 10.15.017.683-.55 1.25-1.234 1.25ZM29.966 12.5c-.216 0-.433-.05-.633-.167L22.717 8.5c-.6-.35-.8-1.117-.45-1.717.35-.6 1.116-.8 1.7-.45l6 3.467 5.95-3.45c.6-.35 1.366-.134 1.7.45.35.6.133 1.366-.45 1.716l-6.584 3.8a1.16 1.16 0 0 1-.616.184Z" fill="#333367"/><path d="M29.967 19.283a1.26 1.26 0 0 1-1.25-1.25v-6.8c0-.683.567-1.25 1.25-1.25s1.25.567 1.25 1.25v6.8c0 .7-.567 1.25-1.25 1.25Z" fill="#333367"/><path d="M29.967 19.583c-.767 0-1.55-.166-2.167-.516l-4-2.217c-1.3-.717-2.283-2.4-2.283-3.883V8.733c0-1.5.983-3.166 2.3-3.9l4-2.216c1.233-.684 3.083-.684 4.333 0l4 2.216c1.3.717 2.283 2.4 2.283 3.884v4.233c0 1.5-.983 3.167-2.283 3.883l-4 2.217c-.65.367-1.417.533-2.183.533Zm-.95-14.8-4 2.217c-.5.283-1 1.133-1 1.7v4.233c0 .584.5 1.434 1 1.7l4 2.234c.483.266 1.416.266 1.9 0l4-2.217c.5-.283 1-1.133 1-1.7V8.717c0-.584-.5-1.434-1-1.7l-4-2.217c-.484-.283-1.434-.283-1.9-.017ZM11.033 30.833c-.216 0-.433-.05-.633-.166l-6.617-3.834c-.6-.35-.8-1.116-.45-1.716.35-.6 1.117-.8 1.7-.45l6 3.466 5.95-3.45c.6-.35 1.367-.133 1.7.45.35.6.134 1.367-.45 1.717l-6.583 3.8a1.16 1.16 0 0 1-.617.183Z" fill="#333367"/><path d="M11.033 37.616a1.26 1.26 0 0 1-1.25-1.25v-6.8c0-.683.567-1.25 1.25-1.25.684 0 1.25.567 1.25 1.25v6.8c0 .7-.55 1.25-1.25 1.25Z" fill="#333367"/><path d="M11.034 37.917c-.767 0-1.55-.167-2.167-.517l-4-2.217c-1.3-.716-2.284-2.4-2.284-3.883v-4.233c0-1.5.984-3.167 2.284-3.884l4-2.216c1.233-.684 3.1-.684 4.333 0l4 2.216c1.3.717 2.284 2.4 2.284 3.884V31.3c0 1.5-.984 3.167-2.3 3.9l-4 2.217c-.6.333-1.367.5-2.15.5Zm-.95-14.8-4 2.216c-.5.284-1 1.134-1 1.7v4.234c0 .583.5 1.433 1 1.7l4 2.216c.483.267 1.416.267 1.9 0l4-2.216c.5-.284 1-1.134 1-1.7v-4.234c0-.583-.5-1.433-1-1.7l-4-2.233c-.467-.25-1.417-.25-1.9.017Z" fill="#333367"/></svg>
